packages/icons/src/info.svg

<svg xmlns="http://www.w3.org/2000/svg" width="24" height="24" fill="none" viewBox="0 0 24 24">
  <path fill="#000" d="M11 6h2v2h-2V6Zm0 4h2v8h-2v-8Z"/>
</svg>

<svg width="24" height="24" viewBox="0 0 24 24" fill="none" xmlns="http://www.w3.org/2000/svg">
<path d="M11 6H13V8H11V6ZM11 10H13V18H11V10Z" fill="black"/>
</svg>
